dist/images/graphics/icons/play.svg

<svg width="31" height="31" viewBox="0 0 31 31" fill="none" xmlns="http://www.w3.org/2000/svg">
<g clip-path="url(#clip0_102_33)">
<path d="M19.9819 14.438L13.7419 9.90202C13.5129 9.73602 13.2089 9.71102 12.9579 9.84002C12.7049 9.96802 12.5469 10.228 12.5469 10.509V19.578C12.5469 19.862 12.7049 20.121 12.9579 20.249C13.0649 20.303 13.1819 20.33 13.2999 20.33C13.4539 20.33 13.6099 20.281 13.7419 20.184L19.9819 15.652C20.1789 15.507 20.2939 15.283 20.2939 15.045C20.2949 14.803 20.1769 14.58 19.9819 14.438Z" fill="white"/>
<path d="M15.026 0.00201416C6.726 0.00201416 0 6.72801 0 15.028C0 23.325 6.726 30.049 15.026 30.049C23.324 30.049 30.051 23.324 30.051 15.028C30.052 6.72801 23.324 0.00201416 15.026 0.00201416ZM15.026 27.542C8.114 27.542 2.51 21.941 2.51 15.028C2.51 8.11801 8.114 2.51001 15.026 2.51001C21.937 2.51001 27.54 8.11701 27.54 15.028C27.541 21.941 21.937 27.542 15.026 27.542Z" fill="white"/>
</g>
<defs>
<clipPath id="clip0_102_33">
<rect width="30.051" height="30.051" fill="white"/>
</clipPath>
</defs>
</svg>

<svg width="31" height="31" fill="none" xmlns="http://www.w3.org/2000/svg"><g clip-path="url(#clip0_102_33)" fill="#fff"><path d="M19.982 14.438l-6.24-4.536a.752.752 0 00-1.195.607v9.069a.75.75 0 001.195.606l6.24-4.532a.747.747 0 000-1.214z"/><path d="M15.026.002C6.726.002 0 6.728 0 15.028c0 8.297 6.726 15.021 15.026 15.021 8.298 0 15.025-6.725 15.025-15.021.001-8.3-6.727-15.026-15.025-15.026zm0 27.54c-6.912 0-12.516-5.601-12.516-12.514 0-6.91 5.604-12.518 12.516-12.518 6.911 0 12.514 5.607 12.514 12.518.001 6.913-5.603 12.514-12.514 12.514z"/></g><defs><clipPath id="clip0_102_33"><path fill="#fff" d="M0 0h30.051v30.051H0z"/></clipPath></defs></svg>
